icons/plexis/48/keysync.svg

<svg viewBox="0 0 48 48" xmlns="http://www.w3.org/2000/svg" xmlns:xlink="http://www.w3.org/1999/xlink">
  <linearGradient id="a" gradientTransform="matrix(0 -1 1 0 -.0000015 47.999998)" gradientUnits="userSpaceOnUse" x1="1" x2="47">
    <stop offset="0" stop-color="#e4e4e4"/>
    <stop offset="1" stop-color="#eee"/>
  </linearGradient>
  <path d="m47 24c0 22.703-.297 23-23 23-22.703 0-23-.297-23-23 0-22.703.297-23 23-23 22.703 0 23 .297 23 23z" fill="url(#a)"/>
  <path d="m25 10a15 15 0 0 0-15 15 15 15 0 0 0  15 15 15 15 0 0 0  15-15 15 15 0 0 0-15-15zm0 2a13 13 0 0 1 13 13 13 13 0 0 1-13 13 13 13 0 0 1-12.641-10.039l4.637-6.961h-4.357a13 13 0 0 1 12.361-9zm4.18 3.998v.002c-2.66 0-4.821 2.16-4.821 4.82 0 .832.212 1.617.579 2.3v.01l-8.938 8.94v1.93h1.926l.64-.64v-1.29h1.289l.641-.64h1.285l.643-.641v-1.285l.636-.645h1.294v-1.285l2.511-2.514h.02c.684.374 1.465.585 2.295.585 2.662 0 4.818-2.161 4.818-4.825v-.019c-.012-2.661-2.156-4.803-4.818-4.803zm.97 2.57c.711 0 1.285.582 1.289 1.289 0 .707-.574 1.283-1.289 1.283-.707 0-1.281-.572-1.281-1.283 0-.707.57-1.289 1.281-1.289z" opacity=".1" transform=""/>
  <path d="m9 24c0 8.284 6.716 15 15 15 .5-.625.5-1.292 0-2-7.18 0-13-5.82-13-13z" fill="#8fc684"/>
  <path d="m28.18 15c-2.66 0-4.82 2.156-4.82 4.82 0 .832.211 1.617.578 2.301 0 .004 0 .008 0 .012l-8.938 8.938v1.93h1.926l.641-.641v-1.289h1.289l.641-.641h1.285l.641-.641v-1.285l.641-.645h1.289v-1.285l2.512-2.512c.004 0 .008 0 .02 0 .684.371 1.465.582 2.297.582 2.66 0 4.816-2.16 4.816-4.824v-.02c-.012-2.66-2.156-4.801-4.816-4.801m.973 2.57c.707 0 1.281.578 1.285 1.289 0 .707-.574 1.285-1.285 1.285-.711 0-1.285-.574-1.285-1.285 0-.711.57-1.289 1.285-1.289m0 0" fill="#2d2d2d"/>
  <path d="m24 9a15 15 0 0 0-15 15h2a13 13 0 0 1 13-13 13 13 0 0 1  13 13 13 13 0 0 1-13 13v2a15 15 0 0 0 15-15 15 15 0 0 0-15-15" fill="#36a321"/>
  <path d="m9.559 20a15 15 0 0 0-.559 4 15 15 0 0 0  .916 5.13l6.084-9.13z" fill="#36a321"/>
</svg>

<svg xmlns="http://www.w3.org/2000/svg" viewBox="0 0 48 48">
 <defs>
  <linearGradient id="linearGradient3764" x1="1" x2="47" gradientUnits="userSpaceOnUse" gradientTransform="matrix(0,-1,1,0,-1.5e-6,47.999998)">
   <stop style="stop-color:#e4e4e4;stop-opacity:1"/>
   <stop offset="1" style="stop-color:#eee;stop-opacity:1"/>
  </linearGradient>
 </defs>
 <g>
  
  
  
 </g>
 <g>
  <path d="m 47,24 C 47,46.703 46.703,47 24,47 1.297,47 1,46.703 1,24 1,1.297 1.297,1 24,1 46.703,1 47,1.297 47,24 z" style="fill:url(#linearGradient3764);fill-opacity:1"/>
 </g>
 <g>
  <g>
   <g transform="translate(1,1)">
    <g style="opacity:0.1">
     <!-- color: #eeeeee -->
     <g>
      <path d="M 25 10 A 15 15 0 0 0 10 25 A 15 15 0 0 0 25 40 A 15 15 0 0 0 40 25 A 15 15 0 0 0 25 10 z M 25 12 A 13 13 0 0 1 38 25 A 13 13 0 0 1 25 38 A 13 13 0 0 1 12.359 27.961 L 16.996 21 L 12.639 21 A 13 13 0 0 1 25 12 z M 29.18 15.998 L 29.18 16 C 26.52 16 24.359 18.16 24.359 20.82 C 24.359 21.652 24.571 22.437 24.938 23.12 L 24.938 23.13 L 16 32.07 L 16 34 L 17.926 34 L 18.566 33.36 L 18.566 32.07 L 19.855 32.07 L 20.496 31.43 L 21.781 31.43 L 22.424 30.789 L 22.424 29.504 L 23.06 28.859 L 24.354 28.859 L 24.354 27.574 L 26.865 25.06 L 26.885 25.06 C 27.569 25.434 28.35 25.645 29.18 25.645 C 31.842 25.645 33.998 23.484 33.998 20.82 L 33.998 20.801 C 33.986 18.14 31.842 15.998 29.18 15.998 z M 30.15 18.568 C 30.861 18.568 31.435 19.15 31.439 19.857 C 31.439 20.564 30.865 21.14 30.15 21.14 C 29.443 21.14 28.869 20.568 28.869 19.857 C 28.869 19.15 29.439 18.568 30.15 18.568 z" transform="translate(-1,-1)" style="fill:#000;fill-opacity:1;stroke:none;fill-rule:nonzero"/>
     </g>
    </g>
   </g>
  </g>
 </g>
 <g>
  <g>
   <!-- color: #eeeeee -->
  </g>
 </g>
 <g>
  
 </g>
 <g>
  <path d="m 9 24 c 0 8.284 6.716 15 15 15 0.5 -0.625 0.5 -1.292 0 -2 -7.18 0 -13 -5.82 -13 -13 z" style="fill:#8fc684;opacity:1;fill-opacity:1;stroke:none"/>
  <path d="m 28.18 15 c -2.66 0 -4.82 2.156 -4.82 4.82 c 0 0.832 0.211 1.617 0.578 2.301 c 0 0.004 0 0.008 0 0.012 l -8.938 8.938 l 0 1.93 l 1.926 0 l 0.641 -0.641 l 0 -1.289 l 1.289 0 l 0.641 -0.641 l 1.285 0 l 0.641 -0.641 l 0 -1.285 l 0.641 -0.645 l 1.289 0 l 0 -1.285 l 2.512 -2.512 c 0.004 0 0.008 0 0.02 0 c 0.684 0.371 1.465 0.582 2.297 0.582 c 2.66 0 4.816 -2.16 4.816 -4.824 l 0 -0.02 c -0.012 -2.66 -2.156 -4.801 -4.816 -4.801 m 0.973 2.57 c 0.707 0 1.281 0.578 1.285 1.289 c 0 0.707 -0.574 1.285 -1.285 1.285 c -0.711 0 -1.285 -0.574 -1.285 -1.285 c 0 -0.711 0.57 -1.289 1.285 -1.289 m 0 0" style="fill:#2d2d2d;fill-opacity:1;stroke:none;fill-rule:nonzero"/>
  <path d="M 24 9 A 15 15 0 0 0 9 24 l 2 0 A 13 13 0 0 1 24 11 13 13 0 0 1 37 24 13 13 0 0 1 24 37 l 0 2 A 15 15 0 0 0 39 24 15 15 0 0 0 24 9" style="fill:#36a321;opacity:1;fill-opacity:1;stroke:none"/>
  <path d="M 9.559 20 A 15 15 0 0 0 9 24 15 15 0 0 0 9.916 29.13 L 16 20 9.559 20" style="fill:#36a321;opacity:1;fill-opacity:1;stroke:none"/>
 </g>
</svg>
